app/assets/images/heroicons/mini/pause.svg

<svg width="20" height="20" viewBox="0 0 20 20" fill="none" xmlns="http://www.w3.org/2000/svg">
<path d="M5.75 3C5.33579 3 5 3.33579 5 3.75V16.25C5 16.6642 5.33579 17 5.75 17H7.25C7.66421 17 8 16.6642 8 16.25V3.75C8 3.33579 7.66421 3 7.25 3H5.75Z" fill="#0F172A"/>
<path d="M12.75 3C12.3358 3 12 3.33579 12 3.75V16.25C12 16.6642 12.3358 17 12.75 17H14.25C14.6642 17 15 16.6642 15 16.25V3.75C15 3.33579 14.6642 3 14.25 3H12.75Z" fill="#0F172A"/>
</svg>

<svg xmlns="http://www.w3.org/2000/svg" viewBox="0 0 20 20" fill="currentColor" aria-hidden="true" data-slot="icon">
  <path d="M5.75 3a.75.75 0 0 0-.75.75v12.5c0 .414.336.75.75.75h1.5a.75.75 0 0 0 .75-.75V3.75A.75.75 0 0 0 7.25 3h-1.5ZM12.75 3a.75.75 0 0 0-.75.75v12.5c0 .414.336.75.75.75h1.5a.75.75 0 0 0 .75-.75V3.75a.75.75 0 0 0-.75-.75h-1.5Z"/>
</svg>
